X:1
T:9 Lieder und Gesänge, Op.63
T:Heimweh I
T:Johannes Brahms
T:Klaus Groth
T:9 Lieder und Gesänge, Op.63
T:7. Heimweh I
T:Creative Commons copyright waiver (CC0 1.0 Universal) 
T:Creative Commons copyright waiver (CC0 1.0 Universal) 
T:Creative Commons copyright waiver (CC0 1.0 Universal) 
C:Johannes Brahms
Z:Klaus Groth
Z:Creative Commons copyright waiver (CC0 1.0 Universal)
Z:
%%score 1 { ( 2 4 ) | 3 }
L:1/8
Q:1/4=58
M:2/4
K:G
V:1 treble nm="Singstimme\nVoice"
V:2 treble nm="Pianoforte"
V:4 treble 
V:3 treble 
V:1
"^Zart bewegt" z/ | z4 | z4 | z4 | z2[Q:1/4=60] z e | d B G F | (E>G) c e | %7
w: ||||Wie|trau- lich war das|Fleck- * chen, wo|
 e3/2 e/ (=f/e/) (c/B/) | A ^f (g/d/) (c/B/) | (A/c/) (B/A/) A2 | z2 z D | F A d A | (_B>=F) F d | %13
w: mei- ne Wie- * ge _|ging, wo mei- * ne *|Wie- * ge * ging!|Kein|Bäum- chen war, kein|Heck- * chen, das|
[Q:1/4=58] =f3/2 ^c/ e3/2 d/ | (dA) z[Q:1/4=56] d ||[M:3/4] (^f/^c/) (e/d/) d3/2 A/ A G || %16
w: nicht voll Träu- me|hing, _ das|nicht, * das * nicht voll Träu- me|
[M:2/4] F2 z2 | z4 | z4 | z2[Q:1/4=62] z e | d B G F | (E>G) c e | e3/2 e/ (=f/e/) (c/B/) | %23
w: hing.|||Wo|nur ein Blüm- chen|blüh- * te, da|blüh- ten gleich * sie *|
 A ^f (g/d/) (c/B/) | (A/c/) (B/A/) A2 | z2 z D | F A d A | (_B>=F) F d | %28
w: mit, da blüh- * ten *|gleich * sie * mit,|und|Al- les sang und|glüh- * te mir|
[Q:1/4=60] =f3/2 ^c/ e3/2 d/ | (dA) z[Q:1/4=58] d || %30
w: zu bei je- dem|Schritt, * mir|
[M:3/4] (^f/^c/) (e/d/) d3/2 A/[Q:1/4=56] A G ||[M:2/4] F2 z2 | z4 | z4 | z2[Q:1/4=60] z e | %35
w: zu _ bei * je- dem, je- dem|Schritt.|||Ich|
 d B G F | (E>G) c[Q:1/4=58] e | e/ e/ (=f>e) (c/B/) | A[Q:1/4=56] ^f (g/d/) (B/G/) | %39
w: wä- re nicht ge-|gan- * gen, nicht|für die gan- * ze *|Welt, nicht für * die *|
 F E[Q:1/4=54] D2 |[Q:1/4=50] z2 z[Q:1/4=54] D | F A ^c d | (_e>_B) B g | %43
w: gan- ze Welt!|Mein|Seh- nen, mein Ver-|lan- * gen, hier|
[Q:1/4=52] ^c3/2 c/ e3/2 =c/ |[Q:1/4=50] =B2 z g | ^c3/2 c/ f e | (ed) (dF) | G2 z2 | z4 | %49
w: ruhts in Wald und|Feld, hier|ruhts, hier ruhts in|Wald * und _|Feld.||
 z2 !fermata!z3/2 |] %50
w: |
V:2
!p! z/ | ([ce][ca]) ([Ac][Ae]) | ([FA][Ac]) ([FA][ce]) |!<(! ([FA]!<)!!>(! ([A-c-g]3)!>)! | %4
 [Acf]3) z/ e/ | z/ d/z/B/z/G/z/[DGB]/ | z/ [Gc]/z/[GBd]/z/[Gce]/z/[Gc]/ | %7
 z/ [^GB]/z/A/z/[Ac]/z/[=Ge]/ | z/ [^FA]/z/[Adf]/z/[Gdg]/z/[GB]/ | z/ [FA]/z/[Ge]/z/[FA]/ z/ (D/- | %10
!>(! D/D[Dc][Dc][Dd]/- | [Dd]/[DFd][DAd][Ddd]!>)![DAd]/-) | [DAd]/([D_Bd][DBd][DBd][DBd]/) | %13
"_cresc." z/ ([D=F^G][DFG][DFG][DFG]/) | z/ ([D^FA][DFA][DF^G][DFA]/) || %15
[M:3/4]!<(! z/ [DFB]!<)![DFB]/!>(! z/ [DFA]/ z z/ [A,^C]/ z/!>)!!p! (b/ || %16
[M:2/4] a/f/e/g/ f/d/=c/e/) | (d/B/A/e/ d/B/A/e/) |!<(! (d/B/A/B/ c/e/a/!<)!e'/) | %19
!>(! (!arpeggio![aa']2!>)! d') z/ e/ | z/ d/z/B/z/G/z/[DGB]/ | z/ [Gc]/z/[GBd]/z/[Gce]/z/[Gc]/ | %22
 z/ [^GB]/z/A/z/[Ac]/z/[=Ge]/ | z/ [^FA]/z/[Adf]/z/[Gdg]/z/[GB]/ | z/ [FA]/z/[Ge]/z/[FA]/ z/ D/- | %25
 D/D[Dc][Dc]!>(![Dd]/- | [Dd]/[DFd][DAd][Ddd]!>)![DAd]/- | [DAd]/([D_Bd][DBd][DBd][DBd]/) | %28
"^rf"!<(! z/ ([D=F^G][DFG][DFG]!<)![DFG]/) | z/ ([D^FA][DFA][DF^G][DFA]/) || %30
[M:3/4]!<(! z/ [DFB]!<)![DFB]/!>(! z/ [DFA]/ z z/!>)! [A,^C]/ z/!p! (b/ || %31
[M:2/4] a/f/e/g/ f/d/=c/e/) | (d/B/A/e/ d/B/A/e/) |!<(! (d/B/A/B/ c/e/a/!<)!e'/) | %34
!>(! (!arpeggio![aa']2!>)! d')!p! z/ ([FA]/ | z/ [GB]d/) z3/2 ([Fd]/ | z/ [EG][ce]/) z3/2 [^GB]/ | %37
 z/ ([Ac][^Gd]/) z/ ([Ac][=Ge]/) | z/ ([FA][Ad]/) z/ ([Gd][DB]/) | z/ ([DA][^CG][DF]/) x/ (D/- | %40
 D/D[D=c][Dc][Dd]/- |!>(! [Dd]/[Dd][Dd][Dd]!>)![Dd]/) | z/ ([_EG_B_e][EGBe]!<(![EGBe][EGB]/) | %43
 z/ [^CG_B^c]!<)![CGBc]/ z/ [DA=c][DAc]/ |!<(! z/ [DG=B][DGB]/ z/ [_B,G_B]!<)![B,GB]/ | %45
 z/ [_B,^C_B][B,CB]/ z/ [G,B,=E][G,B,E]/ | z/ [G,=B,D] z/ z/ [F,A,C]/ z/ (e/ | %47
 d/B/A/e/ d/A/!>(!G/B/) | (c/A/G/d/ c/G/!>)!^F/c/) | z2 !fermata![DGB]3/2 |] %50
V:3
 (B/ |"^dolce" A/F/E/G/ F/D/C/E/) |[K:bass] (D/B,/A,/E/ D/B,/A,/E/) | (D/B,/A,/E,/ D,A,,) | %4
 D,,3 (E | DB,G,F, | E,G,CE) | (DCA,C | DCB,G,) | (D^CD)"^dolce" (D, | D,[D,C][D,C][C,D,C] | %11
 [C,D,C][C,D,C][C,D,C][C,D,C]) | ([_B,,D,_B,][B,,D,B,][B,,D,B,][B,,D,B,]) | %13
 (.[D,,D,].[D,,D,] .[=B,,D,=B,].[B,,D,B,]) | [A,,D,A,][F,,D,F,][B,,D,B,][A,,D,A,] || %15
[M:3/4] [^G,,D,^G,][G,,D,G,] [A,,D,A,] z [A,,,A,,] z ||[M:2/4] (.D,,.[D,,=C,].[C,D,].[D,F,]) | %17
 (.[D,A,].[A,C]) (.[D,A,].[A,C]) | [D,A,] [A,CG]3- | [A,CG] !arpeggio![D,A,CF]2 (E | DB,G,F, | %21
 E,G,CE) | (DCA,C | DCB,G,) | (D^CD)"^dolce" (D, | D,[D,C][D,C][C,D,C] | %26
 [C,D,C][C,D,C][C,D,C][C,D,C]) | ([_B,,D,_B,][B,,D,B,][B,,D,B,][B,,D,B,]) | %28
 (.[D,,D,].[D,,D,] .[=B,,D,=B,].[B,,D,B,]) | [A,,D,A,][F,,D,F,] [B,,D,B,][A,,D,A,] || %30
[M:3/4] [^G,,D,^G,][G,,D,G,] [A,,D,A,] z [A,,,A,,] z ||[M:2/4] (.D,,.[D,,=C,].[C,D,].[D,F,]) | %32
 (.[D,A,].[A,C]) (.[D,A,].[A,C]) | [D,A,] [A,CG]3- | [A,CG] !arpeggio![D,A,CF]2 ([CD] | %35
 [B,D]G,) z (B, | CC,) x D | (CC,) (A,A,,) | (D,C,B,,G,,) | (A,,A,,,D,,)"^dolce" (D, | %40
"^sosten." D,[D,=C][D,C][C,D,C] | [C,D,C][C,D,C][C,D,C][C,D,C]) | %42
 ([_B,,_E,G,_B,][B,,E,G,B,][B,,E,G,B,][G,,B,,G,]) | [=E,,=E,][E,,E,] [^F,,^F,][F,,F,] | %44
 [G,,G,][D,,D,][_E,,_E,][_B,,,_B,,] | [G,,,G,,]2 ^C,,2 | D,,2 [D,,D,]2 | G,,[G,B,]z[G,B,] | %48
 G,,[G,C]z[G,A,] | [G,,,G,,] z !fermata![G,B,]3/2 |] %50
V:4
 x/ | x4 | x4 | x4 | x4 | x4 | x4 | x4 | x4 | x4 | x4 | x4 | x4 | x4 | x4 ||[M:3/4] x6 || %16
[M:2/4] x4 | FE FE | F x3 | x4 | x4 | x4 | x4 | x4 | x4 | x4 | x4 | x4 | x4 | x4 ||[M:3/4] x6 || %31
[M:2/4] x4 | FE FE | F x3 | x4 | x4 | x4 | x4 | x4 | x4 | x4 | x4 | x4 | x4 | x4 | x4 | x4 | %47
 z =F z F | z E z _E | x7/2 |] %50

